X: 0873
T: MISS DAWSON'S WHIM
B: Oliver Ditson "The Boston Collection of Instrumental Music" 1910 p.87 #3
F: http://conquest.imslp.info/files/imglnks/usimg/8/8f/IMSLP175643-PMLP309456-bostoncollection00bost_bw.pdf
%: 2012 John Chambers <jc:trillian.mit.edu>
M: 6/8
L: 1/8
K: G
B/c/ |\
dBG Gge | dBG Gge | dcB dcB | ABA/B/ A2B/c/ |\
dBG Gge | dBG Gge | dcB cBA | GAG/A/ G2 H:|
|: G |\
Bdd Add | gag f2d | Bdd Add | gec d3 |\
Bdd Add | gag f2d | Bdd Add | gfe d3 "^D.C.":|

%%sep 1 1 500
%%sep 1 1 500
